X: 29561
T: Noisy Curlew, The
R: reel
M: 4/4
K: Gmajor
|:GB B2 Gc c2|GB B2 A2 BA|GB B2 dega|bgdc BG G2|
GB B2 Gc c2|GB B2 A2 BA|GB B2 dega|bgdc BG G2:|
|:BcdB c2 dc|BcdB cBAc|BcdB c2 dc|BGDc BG G2|
BcdB c2 dc|BcdB cBAc|BGDB c2 dc|BGDc BG G2:|

